X: 1155
T: Chanter's Tune
B: ralph
B: steve tunes
B: nick
M:4/4
Q: 1/4=160
K:Ddorian
V:1 
|:"Dm."D2 D2 A2 GE|"Dm"D2 AB "C"c2 Bc|"Dm"d2 A2 A2 GA|"C"c2 Bc AGE2|
"Dm."D2 D2 A2 GE|"Dm"D2 AB "C"c2 Bc|"Dm"d2 A2 "C"AGE2|"Dm"D4 D4:|
|:"Dm"A3 B c3 B|"Dm"AGAB c2 Bc|"Dm"d2 A2 A2 GA|"C"c2 Bc AGE2|
"Dm"D2 D2 A2 GE|"Dm"D2 AB c2 Bc|"Dm"d2 A2 "C"AGE2|"Dm"D4 D4:|
% abcbook-tune_id 62a420d096dd4c2715be7364


% abcbook-boost 0
% abcbook-tablature 
% abcbook-transpose 
% abcbook-lastupdated 1665490907518
% abcbook-soundfonts 
% abcbook-repeats 3


